austria/municipalities/70735.svg

<?xml version="1.0" encoding="UTF-8"?>
<!DOCTYPE svg PUBLIC "-//W3C//DTD SVG 1.1//EN" "http://www.w3.org/Graphics/SVG/1.1/DTD/svg11.dtd">
<svg xmlns="http://www.w3.org/2000/svg" version="1.1" width="166px" height="192px" style="shape-rendering:geometricPrecision; text-rendering:geometricPrecision; image-rendering:optimizeQuality; fill-rule:evenodd; clip-rule:evenodd" xmlns:xlink="http://www.w3.org/1999/xlink">
<g><path style="opacity:1" fill="#020100" d="M -0.5,-0.5 C 54.8333,-0.5 110.167,-0.5 165.5,-0.5C 165.5,39.5 165.5,79.5 165.5,119.5C 157.044,159.623 132.711,183.623 92.5,191.5C 85.5,191.5 78.5,191.5 71.5,191.5C 30.9303,182.931 6.93035,158.264 -0.5,117.5C -0.5,78.1667 -0.5,38.8333 -0.5,-0.5 Z"/></g>
<g><path style="opacity:1" fill="#31160f" d="M 3.5,3.5 C 55.6682,2.16877 108.002,2.16877 160.5,3.5C 160.376,4.10667 160.043,4.44001 159.5,4.5C 107.669,3.50108 55.6693,3.16775 3.5,3.5 Z"/></g>
<g><path style="opacity:1" fill="#d53023" d="M 3.5,3.5 C 55.6693,3.16775 107.669,3.50108 159.5,4.5C 153.542,11.6286 147.375,18.6286 141,25.5C 140.667,38.5 140.333,51.5 140,64.5C 134.667,70.5 129.333,76.5 124,82.5C 123.667,70.5 123.333,58.5 123,46.5C 119.433,49.9774 116.1,53.6441 113,57.5C 112.676,55.4311 111.842,55.0977 110.5,56.5C 109.478,56.1445 108.811,55.4778 108.5,54.5C 108.5,53.5 108.5,52.5 108.5,51.5C 111.119,51.7683 113.619,51.435 116,50.5C 116.866,48.1039 116.366,47.4372 114.5,48.5C 113.808,47.9747 113.308,47.3081 113,46.5C 112.713,44.1093 112.213,41.7759 111.5,39.5C 114.123,38.703 116.123,37.203 117.5,35C 117.333,34.5 117.167,34 117,33.5C 116.333,34.8333 115.667,34.8333 115,33.5C 113.631,29.3334 111.964,25.3334 110,21.5C 108.587,19.5864 106.753,18.2531 104.5,17.5C 103.632,9.36736 99.6322,7.36736 92.5,11.5C 90.7534,8.74881 88.42,6.74881 85.5,5.5C 82.3631,6.3015 80.6964,8.3015 80.5,11.5C 71.2325,11.2738 62.7325,13.6071 55,18.5C 54.3583,22.4908 53.8583,26.4908 53.5,30.5C 58.8437,30.334 64.1771,30.5006 69.5,31C 72.0888,32.0247 73.2555,33.858 73,36.5C 70.9285,35.4752 68.7619,34.6419 66.5,34C 60.1031,33.8185 53.7697,33.1518 47.5,32C 44.3787,30.8603 41.8787,29.027 40,26.5C 37.6807,27.4085 37.0141,29.0752 38,31.5C 39.1667,33.3333 40.6667,34.8333 42.5,36C 48.8648,36.7528 55.1981,36.5862 61.5,35.5C 65.1637,35.8598 68.4971,37.0265 71.5,39C 70,39.1667 68.5,39.3333 67,39.5C 63.4336,38.9645 59.9336,38.4645 56.5,38C 55.228,40.0445 55.5614,41.8778 57.5,43.5C 64.9633,46.4451 72.63,47.2784 80.5,46C 61.3422,56.2992 44.5089,53.4658 30,37.5C 29.6667,34.8333 29.3333,32.1667 29,29.5C 26.9338,26.8681 24.4338,26.2014 21.5,27.5C 22.6613,29.2237 22.4947,30.8904 21,32.5C 17.4687,27.6207 13.6353,27.2873 9.5,31.5C 10.325,32.3857 11.325,32.719 12.5,32.5C 13.1667,35.8332 11.8333,37.8332 8.5,38.5C 6.87596,39.8689 6.37596,41.5355 7,43.5C 7.33333,43.1667 7.66667,42.8333 8,42.5C 9.17109,43.8932 10.6711,44.7265 12.5,45C 7.55539,51.7988 8.88872,54.4655 16.5,53C 17.6853,51.647 19.0186,50.4803 20.5,49.5C 25.838,55.6756 32.1714,60.5089 39.5,64C 36.5,65.6667 34.1667,68 32.5,71C 31.062,71.2189 29.7287,71.7189 28.5,72.5C 29.5,74.1667 30.8333,75.5 32.5,76.5C 31.1936,77.9122 30.3603,79.5789 30,81.5C 28.6381,82.9247 27.1381,83.758 25.5,84C 27.3723,86.9439 30.039,88.1105 33.5,87.5C 33.8512,92.0405 31.8512,94.5405 27.5,95C 30.8646,99.343 35.198,100.676 40.5,99C 35.3703,110.777 27.5369,120.277 17,127.5C 16.3333,129.833 16.3333,132.167 17,134.5C 18.7889,132.771 20.9556,132.104 23.5,132.5C 24.7984,140.404 27.2984,141.071 31,134.5C 32.5251,137.087 34.6917,137.92 37.5,137C 38.3835,133.998 38.8835,130.831 39,127.5C 42.0426,129.908 45.2093,130.074 48.5,128C 47.1853,125.152 45.5187,122.485 43.5,120C 47.9095,116.379 52.4095,112.879 57,109.5C 57.8485,106.302 59.3485,103.469 61.5,101C 63.1893,101.134 64.856,101.634 66.5,102.5C 67.4756,103.815 68.4756,105.148 69.5,106.5C 67.5652,109.938 65.0652,112.938 62,115.5C 61.6667,128.833 61.3333,142.167 61,155.5C 55.826,161.199 50.6594,166.865 45.5,172.5C 44.8333,160.833 44.1667,149.167 43.5,137.5C 36.6838,145.094 29.8505,152.761 23,160.5C 11.8254,147.992 5.49206,133.326 4,116.5C 3.50001,78.8348 3.33335,41.1681 3.5,3.5 Z"/></g>
<g><path style="opacity:1" fill="#e5a41c" d="M 107.5,55.5 C 108.007,56.8589 109.007,57.8589 110.5,58.5C 107.914,59.48 105.247,59.8134 102.5,59.5C 101.172,77.1999 100.005,94.8666 99,112.5C 94,117.833 89,123.167 84,128.5C 83.6667,116.5 83.3333,104.5 83,92.5C 78.6321,96.533 74.6321,100.866 71,105.5C 69.9609,104.29 68.7942,103.29 67.5,102.5C 66.4264,101.115 65.0931,99.9487 63.5,99C 62.8333,98.3333 62.1667,98.3333 61.5,99C 58.7069,102.081 56.5403,105.581 55,109.5C 49.6792,112.571 44.8459,116.238 40.5,120.5C 43.5609,121.81 44.8942,124.143 44.5,127.5C 42.0968,127.607 40.2635,126.607 39,124.5C 36.4065,126.7 35.7398,129.367 37,132.5C 34.0697,136.476 32.2363,135.809 31.5,130.5C 30.376,131.914 29.376,133.414 28.5,135C 27.552,135.483 26.552,135.649 25.5,135.5C 25.838,132.989 25.838,130.655 25.5,128.5C 24.1667,129.5 22.8333,130.5 21.5,131.5C 20.3279,131.081 19.3279,130.415 18.5,129.5C 30.3808,120.572 38.7141,109.072 43.5,95C 40.9769,96.4208 38.1436,97.5875 35,98.5C 33.605,98.2196 32.4383,97.5529 31.5,96.5C 33.6518,93.4178 35.3185,90.0844 36.5,86.5C 33.7446,86.3882 31.0779,85.8882 28.5,85C 30.9974,81.0038 34.3307,77.8372 38.5,75.5C 36.5767,74.6922 34.5767,74.1922 32.5,74C 35.0901,69.5759 38.7568,66.4092 43.5,64.5C 34.9334,59.7547 27.1,54.088 20,47.5C 18.5805,49.4219 16.7472,50.7552 14.5,51.5C 13.263,51.4435 12.263,50.9435 11.5,50C 12.6411,47.6921 14.3078,45.8587 16.5,44.5C 5.89918,42.1062 5.89918,39.7728 16.5,37.5C 13.9066,35.9292 12.9066,33.5959 13.5,30.5C 14.8734,30.3433 16.2068,30.51 17.5,31C 18.9763,33.6432 20.9763,35.8099 23.5,37.5C 23.0661,34.5252 23.5661,31.5252 25,28.5C 26.3333,29.1667 27.3333,30.1667 28,31.5C 28.2565,34.557 28.7565,37.557 29.5,40.5C 42.3435,53.1687 57.3435,56.6687 74.5,51C 79.7232,48.5625 84.3899,45.3959 88.5,41.5C 88.1667,41.1667 87.8333,40.8333 87.5,40.5C 78.8869,44.7357 69.8869,45.5691 60.5,43C 57.7326,42.3308 57.2326,41.1641 59,39.5C 63.0215,41.2736 67.1882,41.7736 71.5,41C 76.1592,35.6332 75.1592,31.6332 68.5,29C 64.1794,28.501 59.8461,28.3343 55.5,28.5C 55.4819,24.3635 57.4819,21.8635 61.5,21C 60.1011,20.4054 58.7678,20.5721 57.5,21.5C 56.1667,20.5 56.1667,19.5 57.5,18.5C 61.8912,16.1467 66.5579,14.8134 71.5,14.5C 71.0508,16.9775 71.7175,18.9775 73.5,20.5C 76.2837,19.6083 78.9504,18.4416 81.5,17C 78.6366,15.6011 75.6366,14.6011 72.5,14C 79.5,13.6667 86.5,13.3333 93.5,13C 98.8724,8.78156 101.706,9.94823 102,16.5C 100.58,18.422 98.7471,19.7554 96.5,20.5C 98.7771,20.9855 100.944,20.3188 103,18.5C 104.419,19.4601 105.919,20.2935 107.5,21C 110.13,25.8384 112.464,30.8384 114.5,36C 112.343,36.0781 110.343,36.2448 108.5,36.5C 109.695,41.2249 111.362,45.7249 113.5,50C 110.904,50.458 108.737,49.6246 107,47.5C 106.199,50.367 106.366,53.0336 107.5,55.5 Z"/></g>
<g><path style="opacity:1" fill="#cd3022" d="M 104.5,61.5 C 106.199,61.3398 107.866,61.5065 109.5,62C 107.667,63.8333 105.833,65.6667 104,67.5C 103.322,65.4024 103.489,63.4024 104.5,61.5 Z"/></g>
<g><path style="opacity:1" fill="#1a110a" d="M 108.5,54.5 C 107.833,54.5 107.5,54.8333 107.5,55.5C 106.366,53.0336 106.199,50.367 107,47.5C 108.737,49.6246 110.904,50.458 113.5,50C 111.362,45.7249 109.695,41.2249 108.5,36.5C 110.343,36.2448 112.343,36.0781 114.5,36C 112.464,30.8384 110.13,25.8384 107.5,21C 105.919,20.2935 104.419,19.4601 103,18.5C 100.944,20.3188 98.7771,20.9855 96.5,20.5C 98.7471,19.7554 100.58,18.422 102,16.5C 101.706,9.94823 98.8724,8.78156 93.5,13C 86.5,13.3333 79.5,13.6667 72.5,14C 75.6366,14.6011 78.6366,15.6011 81.5,17C 78.9504,18.4416 76.2837,19.6083 73.5,20.5C 71.7175,18.9775 71.0508,16.9775 71.5,14.5C 66.5579,14.8134 61.8912,16.1467 57.5,18.5C 56.1667,19.5 56.1667,20.5 57.5,21.5C 58.7678,20.5721 60.1011,20.4054 61.5,21C 57.4819,21.8635 55.4819,24.3635 55.5,28.5C 59.8461,28.3343 64.1794,28.501 68.5,29C 75.1592,31.6332 76.1592,35.6332 71.5,41C 67.1882,41.7736 63.0215,41.2736 59,39.5C 57.2326,41.1641 57.7326,42.3308 60.5,43C 69.8869,45.5691 78.8869,44.7357 87.5,40.5C 87.8333,40.8333 88.1667,41.1667 88.5,41.5C 84.3899,45.3959 79.7232,48.5625 74.5,51C 57.3435,56.6687 42.3435,53.1687 29.5,40.5C 28.7565,37.557 28.2565,34.557 28,31.5C 27.3333,30.1667 26.3333,29.1667 25,28.5C 23.5661,31.5252 23.0661,34.5252 23.5,37.5C 20.9763,35.8099 18.9763,33.6432 17.5,31C 16.2068,30.51 14.8734,30.3433 13.5,30.5C 12.9066,33.5959 13.9066,35.9292 16.5,37.5C 5.89918,39.7728 5.89918,42.1062 16.5,44.5C 14.3078,45.8587 12.6411,47.6921 11.5,50C 12.263,50.9435 13.263,51.4435 14.5,51.5C 16.7472,50.7552 18.5805,49.4219 20,47.5C 27.1,54.088 34.9334,59.7547 43.5,64.5C 38.7568,66.4092 35.0901,69.5759 32.5,74C 34.5767,74.1922 36.5767,74.6922 38.5,75.5C 34.3307,77.8372 30.9974,81.0038 28.5,85C 31.0779,85.8882 33.7446,86.3882 36.5,86.5C 35.3185,90.0844 33.6518,93.4178 31.5,96.5C 32.4383,97.5529 33.605,98.2196 35,98.5C 38.1436,97.5875 40.9769,96.4208 43.5,95C 38.7141,109.072 30.3808,120.572 18.5,129.5C 19.3279,130.415 20.3279,131.081 21.5,131.5C 22.8333,130.5 24.1667,129.5 25.5,128.5C 25.838,130.655 25.838,132.989 25.5,135.5C 26.552,135.649 27.552,135.483 28.5,135C 29.376,133.414 30.376,131.914 31.5,130.5C 32.2363,135.809 34.0697,136.476 37,132.5C 35.7398,129.367 36.4065,126.7 39,124.5C 40.2635,126.607 42.0968,127.607 44.5,127.5C 44.8942,124.143 43.5609,121.81 40.5,120.5C 44.8459,116.238 49.6792,112.571 55,109.5C 56.5403,105.581 58.7069,102.081 61.5,99C 62.1667,98.3333 62.8333,98.3333 63.5,99C 65.0931,99.9487 66.4264,101.115 67.5,102.5C 67.1667,102.5 66.8333,102.5 66.5,102.5C 64.856,101.634 63.1893,101.134 61.5,101C 59.3485,103.469 57.8485,106.302 57,109.5C 52.4095,112.879 47.9095,116.379 43.5,120C 45.5187,122.485 47.1853,125.152 48.5,128C 45.2093,130.074 42.0426,129.908 39,127.5C 38.8835,130.831 38.3835,133.998 37.5,137C 34.6917,137.92 32.5251,137.087 31,134.5C 27.2984,141.071 24.7984,140.404 23.5,132.5C 20.9556,132.104 18.7889,132.771 17,134.5C 16.3333,132.167 16.3333,129.833 17,127.5C 27.5369,120.277 35.3703,110.777 40.5,99C 35.198,100.676 30.8646,99.343 27.5,95C 31.8512,94.5405 33.8512,92.0405 33.5,87.5C 30.039,88.1105 27.3723,86.9439 25.5,84C 27.1381,83.758 28.6381,82.9247 30,81.5C 30.3603,79.5789 31.1936,77.9122 32.5,76.5C 30.8333,75.5 29.5,74.1667 28.5,72.5C 29.7287,71.7189 31.062,71.2189 32.5,71C 34.1667,68 36.5,65.6667 39.5,64C 32.1714,60.5089 25.838,55.6756 20.5,49.5C 19.0186,50.4803 17.6853,51.647 16.5,53C 8.88872,54.4655 7.55539,51.7988 12.5,45C 10.6711,44.7265 9.17109,43.8932 8,42.5C 7.66667,42.8333 7.33333,43.1667 7,43.5C 6.37596,41.5355 6.87596,39.8689 8.5,38.5C 11.8333,37.8332 13.1667,35.8332 12.5,32.5C 11.325,32.719 10.325,32.3857 9.5,31.5C 13.6353,27.2873 17.4687,27.6207 21,32.5C 22.4947,30.8904 22.6613,29.2237 21.5,27.5C 24.4338,26.2014 26.9338,26.8681 29,29.5C 29.3333,32.1667 29.6667,34.8333 30,37.5C 44.5089,53.4658 61.3422,56.2992 80.5,46C 72.63,47.2784 64.9633,46.4451 57.5,43.5C 55.5614,41.8778 55.228,40.0445 56.5,38C 59.9336,38.4645 63.4336,38.9645 67,39.5C 68.5,39.3333 70,39.1667 71.5,39C 68.4971,37.0265 65.1637,35.8598 61.5,35.5C 55.1981,36.5862 48.8648,36.7528 42.5,36C 40.6667,34.8333 39.1667,33.3333 38,31.5C 37.0141,29.0752 37.6807,27.4085 40,26.5C 41.8787,29.027 44.3787,30.8603 47.5,32C 53.7697,33.1518 60.1031,33.8185 66.5,34C 68.7619,34.6419 70.9285,35.4752 73,36.5C 73.2555,33.858 72.0888,32.0247 69.5,31C 64.1771,30.5006 58.8437,30.334 53.5,30.5C 53.8583,26.4908 54.3583,22.4908 55,18.5C 62.7325,13.6071 71.2325,11.2738 80.5,11.5C 80.6964,8.3015 82.3631,6.3015 85.5,5.5C 88.42,6.74881 90.7534,8.74881 92.5,11.5C 99.6322,7.36736 103.632,9.36736 104.5,17.5C 106.753,18.2531 108.587,19.5864 110,21.5C 111.964,25.3334 113.631,29.3334 115,33.5C 115.667,34.8333 116.333,34.8333 117,33.5C 117.167,34 117.333,34.5 117.5,35C 116.123,37.203 114.123,38.703 111.5,39.5C 112.213,41.7759 112.713,44.1093 113,46.5C 113.308,47.3081 113.808,47.9747 114.5,48.5C 116.366,47.4372 116.866,48.1039 116,50.5C 113.619,51.435 111.119,51.7683 108.5,51.5C 108.5,52.5 108.5,53.5 108.5,54.5 Z"/></g>
<g><path style="opacity:1" fill="#cb9220" d="M 39.5,28.5 C 43.2524,32.4803 47.9191,34.647 53.5,35C 48.2434,36.4261 43.7434,35.2594 40,31.5C 39.5172,30.552 39.3505,29.552 39.5,28.5 Z"/></g>
<g><path style="opacity:1" fill="#e3a21d" d="M 83.5,7.5 C 86.2776,7.02166 88.2776,8.02166 89.5,10.5C 87.2573,11.4742 84.924,11.8076 82.5,11.5C 82.4326,10.0413 82.7659,8.70792 83.5,7.5 Z"/></g>
<g><path style="opacity:1" fill="#fdfdfd" d="M -0.5,117.5 C 6.93035,158.264 30.9303,182.931 71.5,191.5C 47.5,191.5 23.5,191.5 -0.5,191.5C -0.5,166.833 -0.5,142.167 -0.5,117.5 Z"/></g>
<g><path style="opacity:1" fill="#fdfdfd" d="M 165.5,119.5 C 165.5,143.5 165.5,167.5 165.5,191.5C 141.167,191.5 116.833,191.5 92.5,191.5C 132.711,183.623 157.044,159.623 165.5,119.5 Z"/></g>
<g><path style="opacity:1" fill="#77251a" d="M 43.5,137.5 C 44.1667,149.167 44.8333,160.833 45.5,172.5C 45.2172,173.289 44.7172,173.956 44,174.5C 43.5001,162.171 43.3335,149.838 43.5,137.5 Z"/></g>
</svg>

<svg xmlns="http://www.w3.org/2000/svg" width="166" height="192" style="shape-rendering:geometricPrecision;text-rendering:geometricPrecision;image-rendering:optimizeQuality;fill-rule:evenodd;clip-rule:evenodd"><path style="opacity:1" fill="#020100" d="M-.5-.5h166v120c-8.456 40.123-32.789 64.123-73 72h-21c-40.57-8.569-64.57-33.236-72-74V-.5z"/><path style="opacity:1" fill="#31160f" d="M3.5 3.5a3086.485 3086.485 0 0 1 157 0c-.124.607-.457.94-1 1a6084.586 6084.586 0 0 0-156-1z"/><path style="opacity:1" fill="#d53023" d="M3.5 3.5c52.17-.332 104.169.001 156 1a540.726 540.726 0 0 1-18.5 21l-1 39-16 18-1-36a122.857 122.857 0 0 0-10 11c-.324-2.069-1.158-2.402-2.5-1-1.022-.355-1.689-1.022-2-2v-3c2.619.268 5.119-.065 7.5-1 .866-2.396.366-3.063-1.5-2a4.458 4.458 0 0 1-1.5-2 38.855 38.855 0 0 0-1.5-7c2.623-.797 4.623-2.297 6-4.5l-.5-1.5c-.667 1.333-1.333 1.333-2 0a83.288 83.288 0 0 0-5-12c-1.413-1.914-3.247-3.247-5.5-4-.868-8.133-4.868-10.133-12-6-1.747-2.751-4.08-4.751-7-6-3.137.801-4.804 2.802-5 6-9.267-.226-17.767 2.107-25.5 7-.642 3.99-1.142 7.99-1.5 12 5.344-.166 10.677 0 16 .5 2.589 1.025 3.755 2.858 3.5 5.5a38.053 38.053 0 0 0-6.5-2.5 124.55 124.55 0 0 1-19-2c-3.121-1.14-5.621-2.973-7.5-5.5-2.32.909-2.986 2.575-2 5a14.497 14.497 0 0 0 4.5 4.5 65.788 65.788 0 0 0 19-.5c3.664.36 6.997 1.526 10 3.5l-4.5.5A728.012 728.012 0 0 0 56.5 38c-1.272 2.044-.939 3.878 1 5.5 7.463 2.945 15.13 3.778 23 2.5-19.158 10.3-35.991 7.466-50.5-8.5l-1-8c-2.066-2.632-4.566-3.299-7.5-2 1.161 1.724.995 3.39-.5 5-3.531-4.88-7.365-5.213-11.5-1 .825.886 1.825 1.219 3 1 .667 3.333-.667 5.333-4 6-1.624 1.369-2.124 3.035-1.5 5l1-1c1.171 1.393 2.671 2.227 4.5 2.5-4.945 6.799-3.611 9.465 4 8a19.894 19.894 0 0 1 4-3.5c5.338 6.176 11.671 11.009 19 14.5-3 1.667-5.333 4-7 7a10.253 10.253 0 0 0-4 1.5c1 1.667 2.333 3 4 4-1.306 1.412-2.14 3.079-2.5 5-1.362 1.425-2.862 2.258-4.5 2.5 1.872 2.944 4.539 4.11 8 3.5.351 4.54-1.649 7.04-6 7.5 3.365 4.343 7.698 5.676 13 4-5.13 11.777-12.963 21.277-23.5 28.5a12.5 12.5 0 0 0 0 7c1.789-1.729 3.956-2.396 6.5-2 1.298 7.904 3.798 8.571 7.5 2 1.525 2.587 3.692 3.42 6.5 2.5.883-3.002 1.383-6.169 1.5-9.5 3.043 2.408 6.21 2.574 9.5.5a37.73 37.73 0 0 0-5-8c4.41-3.621 8.91-7.121 13.5-10.5.849-3.198 2.349-6.031 4.5-8.5 1.69.134 3.356.634 5 1.5a494.818 494.818 0 0 0 3 4 32.279 32.279 0 0 1-7.5 9l-1 40a5456.484 5456.484 0 0 1-15.5 17l-2-35a4464.506 4464.506 0 0 0-20.5 23c-11.175-12.508-17.508-27.174-19-44-.5-37.665-.667-75.332-.5-113z"/><path style="opacity:1" fill="#e5a41c" d="M107.5 55.5c.507 1.359 1.507 2.359 3 3a16.868 16.868 0 0 1-8 1 2958.121 2958.121 0 0 0-3.5 53l-15 16-1-36a110.197 110.197 0 0 0-12 13 14.696 14.696 0 0 0-3.5-3c-1.074-1.385-2.407-2.551-4-3.5-.667-.667-1.333-.667-2 0a34.03 34.03 0 0 0-6.5 10.5 72.077 72.077 0 0 0-14.5 11c3.06 1.31 4.394 3.643 4 7-2.403.107-4.236-.893-5.5-3-2.593 2.2-3.26 4.867-2 8-2.93 3.976-4.764 3.309-5.5-2a32.367 32.367 0 0 0-3 4.5 4.934 4.934 0 0 1-3 .5c.338-2.511.338-4.845 0-7l-4 3a7.292 7.292 0 0 1-3-2c11.88-8.928 20.214-20.428 25-34.5-2.523 1.42-5.356 2.588-8.5 3.5a6.205 6.205 0 0 1-3.5-2 38.345 38.345 0 0 0 5-10 27.898 27.898 0 0 1-8-1.5c2.497-3.996 5.83-7.163 10-9.5a20.216 20.216 0 0 0-6-1.5c2.59-4.424 6.257-7.59 11-9.5a119.634 119.634 0 0 1-23.5-17c-1.42 1.922-3.253 3.255-5.5 4-1.237-.056-2.237-.556-3-1.5a13.27 13.27 0 0 1 5-5.5c-10.6-2.394-10.6-4.727 0-7-2.593-1.57-3.593-3.904-3-7a8.434 8.434 0 0 1 4 .5 18.685 18.685 0 0 0 6 6.5c-.434-2.975.066-5.975 1.5-9a6.541 6.541 0 0 1 3 3 55.692 55.692 0 0 0 1.5 9c12.843 12.669 27.843 16.169 45 10.5 5.223-2.438 9.89-5.604 14-9.5l-1-1c-8.613 4.236-17.613 5.07-27 2.5-2.767-.67-3.267-1.836-1.5-3.5 4.022 1.774 8.188 2.274 12.5 1.5 4.66-5.367 3.66-9.367-3-12a84.938 84.938 0 0 0-13-.5c-.018-4.137 1.982-6.637 6-7.5-1.399-.595-2.732-.428-4 .5-1.333-1-1.333-2 0-3 4.391-2.353 9.058-3.687 14-4-.45 2.477.218 4.477 2 6a42.641 42.641 0 0 0 8-3.5 35.735 35.735 0 0 0-9-3l21-1c5.372-4.218 8.206-3.052 8.5 3.5-1.42 1.922-3.253 3.255-5.5 4 2.277.485 4.444-.181 6.5-2a29.465 29.465 0 0 0 4.5 2.5 135.445 135.445 0 0 1 7 15 59.608 59.608 0 0 0-6 .5 66.587 66.587 0 0 0 5 13.5c-2.596.458-4.763-.375-6.5-2.5-.801 2.867-.634 5.534.5 8z"/><path style="opacity:1" fill="#cd3022" d="M104.5 61.5c1.699-.16 3.366.007 5 .5l-5.5 5.5c-.678-2.098-.511-4.098.5-6z"/><path style="opacity:1" fill="#1a110a" d="M108.5 54.5c-.667 0-1 .333-1 1-1.134-2.466-1.301-5.133-.5-8 1.737 2.125 3.904 2.958 6.5 2.5a66.587 66.587 0 0 1-5-13.5 59.608 59.608 0 0 1 6-.5 135.445 135.445 0 0 0-7-15 29.465 29.465 0 0 1-4.5-2.5c-2.056 1.819-4.223 2.485-6.5 2 2.247-.745 4.08-2.078 5.5-4-.294-6.552-3.128-7.718-8.5-3.5l-21 1a35.735 35.735 0 0 1 9 3 42.641 42.641 0 0 1-8 3.5c-1.782-1.523-2.45-3.523-2-6-4.942.313-9.609 1.647-14 4-1.333 1-1.333 2 0 3 1.268-.928 2.601-1.095 4-.5-4.018.863-6.018 3.363-6 7.5 4.346-.166 8.68.001 13 .5 6.66 2.633 7.66 6.633 3 12-4.312.774-8.478.274-12.5-1.5-1.767 1.664-1.267 2.83 1.5 3.5 9.387 2.57 18.387 1.736 27-2.5l1 1c-4.11 3.896-8.777 7.063-14 9.5-17.157 5.669-32.157 2.169-45-10.5a55.692 55.692 0 0 1-1.5-9 6.541 6.541 0 0 0-3-3c-1.434 3.025-1.934 6.025-1.5 9a18.685 18.685 0 0 1-6-6.5 8.434 8.434 0 0 0-4-.5c-.593 3.096.407 5.43 3 7-10.6 2.273-10.6 4.606 0 7a13.27 13.27 0 0 0-5 5.5c.763.944 1.763 1.444 3 1.5 2.247-.745 4.08-2.078 5.5-4a119.634 119.634 0 0 0 23.5 17c-4.743 1.91-8.41 5.076-11 9.5 2.077.192 4.077.692 6 1.5-4.17 2.337-7.503 5.504-10 9.5a27.898 27.898 0 0 0 8 1.5 38.345 38.345 0 0 1-5 10 6.205 6.205 0 0 0 3.5 2c3.144-.912 5.977-2.08 8.5-3.5-4.786 14.072-13.12 25.572-25 34.5a7.292 7.292 0 0 0 3 2l4-3c.338 2.155.338 4.489 0 7a4.934 4.934 0 0 0 3-.5 32.367 32.367 0 0 1 3-4.5c.736 5.309 2.57 5.976 5.5 2-1.26-3.133-.593-5.8 2-8 1.264 2.107 3.097 3.107 5.5 3 .394-3.357-.94-5.69-4-7a72.077 72.077 0 0 1 14.5-11A34.03 34.03 0 0 1 61.5 99c.667-.667 1.333-.667 2 0 1.593.949 2.926 2.115 4 3.5h-1c-1.644-.866-3.31-1.366-5-1.5-2.151 2.469-3.651 5.302-4.5 8.5A322.748 322.748 0 0 0 43.5 120a37.73 37.73 0 0 1 5 8c-3.29 2.074-6.457 1.908-9.5-.5-.117 3.331-.617 6.498-1.5 9.5-2.808.92-4.975.087-6.5-2.5-3.702 6.571-6.202 5.904-7.5-2-2.544-.396-4.711.271-6.5 2a12.5 12.5 0 0 1 0-7c10.537-7.223 18.37-16.723 23.5-28.5-5.302 1.676-9.635.343-13-4 4.351-.46 6.351-2.96 6-7.5-3.461.61-6.128-.556-8-3.5 1.638-.242 3.138-1.075 4.5-2.5.36-1.921 1.194-3.588 2.5-5-1.667-1-3-2.333-4-4a10.253 10.253 0 0 1 4-1.5c1.667-3 4-5.333 7-7-7.329-3.491-13.662-8.324-19-14.5a19.894 19.894 0 0 0-4 3.5c-7.611 1.465-8.945-1.201-4-8-1.829-.273-3.329-1.107-4.5-2.5l-1 1c-.624-1.965-.124-3.631 1.5-5 3.333-.667 4.667-2.667 4-6-1.175.219-2.175-.114-3-1 4.135-4.213 7.969-3.88 11.5 1 1.495-1.61 1.661-3.276.5-5 2.934-1.299 5.434-.632 7.5 2l1 8C44.509 53.466 61.342 56.3 80.5 46c-7.87 1.278-15.537.445-23-2.5-1.939-1.622-2.272-3.456-1-5.5 3.434.465 6.934.965 10.5 1.5l4.5-.5c-3.003-1.974-6.336-3.14-10-3.5a65.788 65.788 0 0 1-19 .5 14.497 14.497 0 0 1-4.5-4.5c-.986-2.425-.32-4.091 2-5 1.879 2.527 4.379 4.36 7.5 5.5a124.55 124.55 0 0 0 19 2 38.053 38.053 0 0 1 6.5 2.5c.255-2.642-.911-4.475-3.5-5.5-5.323-.5-10.656-.666-16-.5.358-4.01.858-8.01 1.5-12 7.733-4.893 16.233-7.226 25.5-7 .196-3.198 1.863-5.199 5-6 2.92 1.249 5.253 3.249 7 6 7.132-4.133 11.132-2.133 12 6 2.253.753 4.087 2.086 5.5 4a83.288 83.288 0 0 1 5 12c.667 1.333 1.333 1.333 2 0l.5 1.5c-1.377 2.203-3.377 3.703-6 4.5a38.855 38.855 0 0 1 1.5 7 4.458 4.458 0 0 0 1.5 2c1.866-1.063 2.366-.396 1.5 2-2.381.935-4.881 1.268-7.5 1v3z"/><path style="opacity:1" fill="#cb9220" d="M39.5 28.5c3.752 3.98 8.42 6.147 14 6.5-5.257 1.426-9.757.26-13.5-3.5a4.932 4.932 0 0 1-.5-3z"/><path style="opacity:1" fill="#e3a21d" d="M83.5 7.5c2.778-.478 4.778.522 6 3a13.117 13.117 0 0 1-7 1c-.067-1.459.266-2.792 1-4z"/><path style="opacity:1" fill="#fdfdfd" d="M-.5 117.5c7.43 40.764 31.43 65.431 72 74h-72v-74zM165.5 119.5v72h-73c40.211-7.877 64.544-31.877 73-72z"/><path style="opacity:1" fill="#77251a" d="m43.5 137.5 2 35c-.283.789-.783 1.456-1.5 2a684.961 684.961 0 0 1-.5-37z"/></svg>
